img/icons/email.svg.svg

<svg viewBox="0 0 31 31" xmlns="http://www.w3.org/2000/svg" fill-rule="evenodd" clip-rule="evenodd" stroke-linejoin="round" stroke-miterlimit="2"><g transform="translate(.813 .007) scale(.05892)"><clipPath id="a"><path d="M0 0h512v512H0z"/></clipPath><g clip-path="url(#a)"><path d="M339.392 258.624L512 367.744V144.896L339.392 258.624zM0 144.896v222.848l172.608-109.12L0 144.896zM480 80H32C16.032 80 3.36 91.904.96 107.232L256 275.264l255.04-168.032C508.64 91.904 495.968 80 480 80zM310.08 277.952l-45.28 29.824a15.983 15.983 0 01-8.8 2.624c-3.072 0-6.112-.864-8.8-2.624l-45.28-29.856L1.024 404.992C3.488 420.192 16.096 432 32 432h448c15.904 0 28.512-11.808 30.976-27.008L310.08 277.952z" fill="#fff" fill-rule="nonzero"/></g></g></svg>

<?xml version="1.0" encoding="UTF-8" standalone="no"?>
<!DOCTYPE svg PUBLIC "-//W3C//DTD SVG 1.1//EN" "http://www.w3.org/Graphics/SVG/1.1/DTD/svg11.dtd">
<svg width="100%" height="100%" viewBox="0 0 31 31" version="1.1" xmlns="http://www.w3.org/2000/svg" xmlns:xlink="http://www.w3.org/1999/xlink" xml:space="preserve" xmlns:serif="http://www.serif.com/" style="fill-rule:evenodd;clip-rule:evenodd;stroke-linejoin:round;stroke-miterlimit:2;">
    <g transform="matrix(1,0,0,1,-794,-5259)">
        <g transform="matrix(0.225114,0,0,0.338527,-0.665851,1703.07)">
            <g id="email.svg" transform="matrix(0.261719,0,0,0.174037,3600.67,10548.7)">
                <g transform="matrix(1,0,0,1,-256,-256)">
                    <clipPath id="_clip1">
                        <rect x="0" y="0" width="512" height="512"/>
                    </clipPath>
                    <g clip-path="url(#_clip1)">
                        <g>
                            <g>
                                <path d="M339.392,258.624L512,367.744L512,144.896L339.392,258.624Z" style="fill:white;fill-rule:nonzero;"/>
                            </g>
                        </g>
                        <g>
                            <g>
                                <path d="M0,144.896L0,367.744L172.608,258.624L0,144.896Z" style="fill:white;fill-rule:nonzero;"/>
                            </g>
                        </g>
                        <g>
                            <g>
                                <path d="M480,80L32,80C16.032,80 3.36,91.904 0.96,107.232L256,275.264L511.04,107.232C508.64,91.904 495.968,80 480,80Z" style="fill:white;fill-rule:nonzero;"/>
                            </g>
                        </g>
                        <g>
                            <g>
                                <path d="M310.08,277.952L264.8,307.776C262.112,309.536 259.072,310.4 256,310.4C252.928,310.4 249.888,309.536 247.2,307.776L201.92,277.92L1.024,404.992C3.488,420.192 16.096,432 32,432L480,432C495.904,432 508.512,420.192 510.976,404.992L310.08,277.952Z" style="fill:white;fill-rule:nonzero;"/>
                            </g>
                        </g>
                    </g>
                </g>
            </g>
        </g>
    </g>
</svg>
